Numix/16/status/indicator-keyboard-Da-2.svg

<?xml version="1.0" encoding="UTF-8" standalone="no"?>
<svg
   xmlns:dc="http://purl.org/dc/elements/1.1/"
   xmlns:cc="http://creativecommons.org/ns#"
   xmlns:rdf="http://www.w3.org/1999/02/22-rdf-syntax-ns#"
   xmlns:svg="http://www.w3.org/2000/svg"
   xmlns="http://www.w3.org/2000/svg"
   xmlns:sodipodi="http://sodipodi.sourceforge.net/DTD/sodipodi-0.dtd"
   xmlns:inkscape="http://www.inkscape.org/namespaces/inkscape"
   viewBox="0 0 16 16"
   id="svg2"
   version="1.1"
   inkscape:version="0.91 r13725"
   sodipodi:docname="indicator-keyboard-Da-2.svg">
  <metadata
     id="metadata14">
    <rdf:RDF>
      <cc:Work
         rdf:about="">
        <dc:format>image/svg+xml</dc:format>
        <dc:type
           rdf:resource="http://purl.org/dc/dcmitype/StillImage" />
      </cc:Work>
    </rdf:RDF>
  </metadata>
  <defs
     id="defs12" />
  <sodipodi:namedview
     pagecolor="#ffffff"
     bordercolor="#666666"
     borderopacity="1"
     objecttolerance="10"
     gridtolerance="10"
     guidetolerance="10"
     inkscape:pageopacity="0"
     inkscape:pageshadow="2"
     inkscape:window-width="459"
     inkscape:window-height="369"
     id="namedview10"
     showgrid="false"
     inkscape:zoom="14.75"
     inkscape:cx="8"
     inkscape:cy="8"
     inkscape:window-x="65"
     inkscape:window-y="24"
     inkscape:window-maximized="0"
     inkscape:current-layer="svg2" />
  <path
     style="fill:#ececec;fill-opacity:1"
     d="M 1.5996094 0 C 0.71320937 2.9605947e-16 0 0.71320937 0 1.5996094 L 0 14.400391 C 2.9605947e-16 15.286791 0.71320937 16 1.5996094 16 L 14.400391 16 C 15.286791 16 16 15.286791 16 14.400391 L 16 1.5996094 C 16 0.71320937 15.286791 0 14.400391 0 L 1.5996094 0 z M 3.0722656 4.8046875 C 3.5762656 4.8046875 4.0389844 4.8719062 4.4589844 5.0039062 C 4.8789844 5.1359063 5.2390625 5.3336562 5.5390625 5.5976562 C 5.8450625 5.8616563 6.082 6.1918906 6.25 6.5878906 C 6.418 6.9838906 6.5019531 7.4446562 6.5019531 7.9726562 C 6.5019531 8.5066563 6.418 8.9711875 6.25 9.3671875 C 6.082 9.7631875 5.8450625 10.093422 5.5390625 10.357422 C 5.2390625 10.621422 4.8789844 10.819172 4.4589844 10.951172 C 4.0389844 11.083172 3.5762656 11.150391 3.0722656 11.150391 C 2.8202656 11.150391 2.55725 11.135469 2.28125 11.105469 C 2.00525 11.081469 1.7627344 11.042281 1.5527344 10.988281 L 1.5527344 4.9765625 C 1.7627344 4.9165625 2.00525 4.8736094 2.28125 4.8496094 C 2.55725 4.8196094 2.8202656 4.8046875 3.0722656 4.8046875 z M 3.1445312 5.3359375 C 2.8205312 5.3359375 2.5835938 5.3452812 2.4335938 5.3632812 C 2.2895937 5.3812812 2.2000625 5.3924375 2.1640625 5.3984375 L 2.1640625 10.556641 C 2.2000625 10.562641 2.2895937 10.573797 2.4335938 10.591797 C 2.5835937 10.609797 2.8205313 10.619141 3.1445312 10.619141 C 3.5945312 10.619141 3.9882188 10.559453 4.3242188 10.439453 C 4.6602187 10.313453 4.9419219 10.136203 5.1699219 9.9082031 C 5.3979219 9.6802031 5.5695937 9.4040781 5.6835938 9.0800781 C 5.7975938 8.7500781 5.8535156 8.3806562 5.8535156 7.9726562 C 5.8535156 7.5646562 5.7975937 7.199 5.6835938 6.875 C 5.5695938 6.551 5.3979219 6.274875 5.1699219 6.046875 C 4.9419219 5.818875 4.6602188 5.6453906 4.3242188 5.5253906 C 3.9882188 5.3993906 3.5945312 5.3359375 3.1445312 5.3359375 z M 9.2402344 6.3359375 C 9.5462344 6.3359375 9.803672 6.3807031 10.013672 6.4707031 C 10.229672 6.5547031 10.403156 6.6740781 10.535156 6.8300781 C 10.667156 6.9800781 10.764219 7.1591406 10.824219 7.3691406 C 10.884219 7.5791406 10.914062 7.8086875 10.914062 8.0546875 L 10.914062 10.988281 C 10.854062 11.006281 10.766344 11.026781 10.652344 11.050781 C 10.538344 11.068781 10.405859 11.089281 10.255859 11.113281 C 10.105859 11.137281 9.937953 11.155969 9.7519531 11.167969 C 9.5719531 11.185969 9.3853594 11.195313 9.1933594 11.195312 C 8.9473594 11.195312 8.7197656 11.167281 8.5097656 11.113281 C 8.3057656 11.059281 8.1267031 10.975328 7.9707031 10.861328 C 7.8207031 10.741328 7.699375 10.592109 7.609375 10.412109 C 7.525375 10.226109 7.484375 10.000328 7.484375 9.7363281 C 7.484375 9.4843281 7.5329062 9.2698437 7.6289062 9.0898438 C 7.7249063 8.9098438 7.8592031 8.7624375 8.0332031 8.6484375 C 8.2072031 8.5284375 8.4142969 8.4407187 8.6542969 8.3867188 C 8.8942969 8.3327188 9.1555 8.3066406 9.4375 8.3066406 C 9.5215 8.3066406 9.6092188 8.3122187 9.6992188 8.3242188 C 9.7952187 8.3302187 9.88475 8.341375 9.96875 8.359375 C 10.05875 8.371375 10.133359 8.3862969 10.193359 8.4042969 C 10.259359 8.4162969 10.304125 8.4294063 10.328125 8.4414062 L 10.328125 8.1523438 C 10.328125 7.9903438 10.316969 7.8355469 10.292969 7.6855469 C 10.268969 7.5295469 10.214859 7.3914844 10.130859 7.2714844 C 10.052859 7.1454844 9.9390624 7.0466094 9.7890625 6.9746094 C 9.6450625 6.8966094 9.4528906 6.8574219 9.2128906 6.8574219 C 8.8708906 6.8574219 8.6152656 6.8816875 8.4472656 6.9296875 C 8.2792656 6.9776875 8.156125 7.016875 8.078125 7.046875 L 7.9980469 6.5332031 C 8.1000469 6.4852031 8.2548438 6.4404375 8.4648438 6.3984375 C 8.6808437 6.3564375 8.9402344 6.3359375 9.2402344 6.3359375 z M 13.121094 8.7539062 C 13.514994 8.7539062 13.810866 8.851875 14.009766 9.046875 C 14.208666 9.237975 14.308594 9.5044563 14.308594 9.8476562 C 14.308594 9.9997563 14.281163 10.14475 14.226562 10.28125 C 14.171962 10.41385 14.097506 10.543169 14.003906 10.667969 C 13.914206 10.792769 13.810359 10.912297 13.693359 11.029297 C 13.576359 11.146297 13.456837 11.263859 13.335938 11.380859 C 13.234538 11.478359 13.136562 11.578288 13.039062 11.679688 C 12.945463 11.777187 12.85925 11.877116 12.78125 11.978516 C 12.70715 12.076016 12.646409 12.172031 12.599609 12.269531 C 12.556709 12.363131 12.535156 12.457181 12.535156 12.550781 L 12.535156 12.5625 L 14.447266 12.5625 L 14.447266 12.896484 L 12.113281 12.896484 C 12.113281 12.888684 12.111355 12.874969 12.107422 12.855469 L 12.107422 12.755859 C 12.107422 12.572559 12.140731 12.402094 12.207031 12.246094 C 12.273331 12.086194 12.357584 11.937275 12.458984 11.796875 C 12.564284 11.656475 12.679888 11.525197 12.804688 11.404297 C 12.933387 11.283397 13.056828 11.165834 13.173828 11.052734 C 13.271328 10.959134 13.361466 10.869003 13.447266 10.783203 C 13.536966 10.693503 13.615341 10.603366 13.681641 10.509766 C 13.747941 10.416166 13.800844 10.316237 13.839844 10.210938 C 13.878844 10.105638 13.898437 9.9900344 13.898438 9.8652344 C 13.898438 9.5922344 13.823981 9.39825 13.675781 9.28125 C 13.531481 9.16035 13.349253 9.0996094 13.126953 9.0996094 C 13.002153 9.0996094 12.890469 9.1152844 12.792969 9.1464844 C 12.695469 9.1776844 12.609256 9.2149125 12.535156 9.2578125 C 12.464956 9.2968125 12.404216 9.3379594 12.353516 9.3808594 C 12.302816 9.4237594 12.265587 9.4570688 12.242188 9.4804688 L 12.042969 9.2167969 C 12.066369 9.1894969 12.107516 9.1503094 12.166016 9.0996094 C 12.228416 9.0450094 12.304831 8.9921062 12.394531 8.9414062 C 12.488131 8.8907063 12.595897 8.8476 12.716797 8.8125 C 12.837697 8.7735 12.972894 8.7539063 13.121094 8.7539062 z M 9.4199219 8.8105469 C 9.2759219 8.8105469 9.12475 8.8217031 8.96875 8.8457031 C 8.81275 8.8637031 8.6691094 8.9084687 8.5371094 8.9804688 C 8.4051094 9.0464688 8.2968906 9.1397656 8.2128906 9.2597656 C 8.1288906 9.3797656 8.0878906 9.5383281 8.0878906 9.7363281 C 8.0878906 9.9103281 8.1139687 10.057734 8.1679688 10.177734 C 8.2279688 10.297734 8.3101094 10.394797 8.4121094 10.466797 C 8.5201094 10.538797 8.6450625 10.592906 8.7890625 10.628906 C 8.9390625 10.658906 9.1069688 10.673828 9.2929688 10.673828 C 9.5209687 10.673828 9.7187188 10.666297 9.8867188 10.654297 C 10.060719 10.636297 10.208125 10.615797 10.328125 10.591797 L 10.328125 8.953125 C 10.262125 8.923125 10.157672 8.8932813 10.013672 8.8632812 C 9.869672 8.8272812 9.6719219 8.8105469 9.4199219 8.8105469 z "
     id="path4" />
</svg>

<svg xmlns="http://www.w3.org/2000/svg" viewBox="0 0 16 16">
 <path d="m 1.6 0 c -0.886 0 -1.6 0.713 -1.6 1.6 l 0 12.801 c 0 0.886 0.713 1.6 1.6 1.6 l 12.801 0 c 0.886 0 1.6 -0.713 1.6 -1.6 l 0 -12.801 c 0 -0.886 -0.713 -1.6 -1.6 -1.6 l -12.801 0 z m 1.473 4.805 c 0.504 0 0.967 0.067 1.387 0.199 c 0.42 0.132 0.78 0.33 1.08 0.594 c 0.306 0.264 0.543 0.594 0.711 0.99 c 0.168 0.396 0.252 0.857 0.252 1.385 c 0 0.534 -0.084 0.999 -0.252 1.395 c -0.168 0.396 -0.405 0.726 -0.711 0.99 c -0.3 0.264 -0.66 0.462 -1.08 0.594 c -0.42 0.132 -0.883 0.199 -1.387 0.199 c -0.252 0 -0.515 -0.015 -0.791 -0.045 c -0.276 -0.024 -0.519 -0.063 -0.729 -0.117 l 0 -6.01 c 0.21 -0.06 0.453 -0.103 0.729 -0.127 c 0.276 -0.03 0.539 -0.045 0.791 -0.045 z m 0.072 0.531 c -0.324 0 -0.561 0.009 -0.711 0.027 c -0.144 0.018 -0.234 0.029 -0.27 0.035 l 0 5.158 c 0.036 0.006 0.126 0.017 0.27 0.035 c 0.15 0.018 0.387 0.027 0.711 0.027 c 0.45 0 0.844 -0.06 1.18 -0.18 c 0.336 -0.126 0.618 -0.303 0.846 -0.531 c 0.228 -0.228 0.4 -0.504 0.514 -0.828 c 0.114 -0.33 0.17 -0.699 0.17 -1.107 c 0 -0.408 -0.056 -0.774 -0.17 -1.098 c -0.114 -0.324 -0.286 -0.6 -0.514 -0.828 c -0.228 -0.228 -0.51 -0.401 -0.846 -0.521 c -0.336 -0.126 -0.73 -0.189 -1.18 -0.189 z m 6.096 1 c 0.306 0 0.563 0.045 0.773 0.135 c 0.216 0.084 0.389 0.203 0.521 0.359 c 0.132 0.15 0.229 0.329 0.289 0.539 c 0.06 0.21 0.09 0.44 0.09 0.686 l 0 2.934 c -0.06 0.018 -0.148 0.038 -0.262 0.063 c -0.114 0.018 -0.246 0.038 -0.396 0.063 c -0.15 0.024 -0.318 0.043 -0.504 0.055 c -0.18 0.018 -0.367 0.027 -0.559 0.027 c -0.246 0 -0.474 -0.028 -0.684 -0.082 c -0.204 -0.054 -0.383 -0.138 -0.539 -0.252 c -0.15 -0.12 -0.271 -0.269 -0.361 -0.449 c -0.084 -0.186 -0.125 -0.412 -0.125 -0.676 c 0 -0.252 0.049 -0.466 0.145 -0.646 c 0.096 -0.18 0.23 -0.327 0.404 -0.441 c 0.174 -0.12 0.381 -0.208 0.621 -0.262 c 0.24 -0.054 0.501 -0.08 0.783 -0.08 c 0.084 0 0.172 0.006 0.262 0.018 c 0.096 0.006 0.186 0.017 0.27 0.035 c 0.09 0.012 0.165 0.027 0.225 0.045 c 0.066 0.012 0.111 0.025 0.135 0.037 l 0 -0.289 c 0 -0.162 -0.011 -0.317 -0.035 -0.467 c -0.024 -0.156 -0.078 -0.294 -0.162 -0.414 c -0.078 -0.126 -0.192 -0.225 -0.342 -0.297 c -0.144 -0.078 -0.336 -0.117 -0.576 -0.117 c -0.342 0 -0.598 0.024 -0.766 0.072 c -0.168 0.048 -0.291 0.087 -0.369 0.117 l -0.08 -0.514 c 0.102 -0.048 0.257 -0.093 0.467 -0.135 c 0.216 -0.042 0.475 -0.063 0.775 -0.063 z m 3.881 2.418 c 0.394 0 0.69 0.098 0.889 0.293 c 0.199 0.191 0.299 0.458 0.299 0.801 c 0 0.152 -0.027 0.297 -0.082 0.434 c -0.055 0.133 -0.129 0.262 -0.223 0.387 c -0.09 0.125 -0.194 0.244 -0.311 0.361 c -0.117 0.117 -0.237 0.235 -0.357 0.352 c -0.101 0.098 -0.199 0.197 -0.297 0.299 c -0.094 0.097 -0.18 0.197 -0.258 0.299 c -0.074 0.097 -0.135 0.194 -0.182 0.291 c -0.043 0.094 -0.064 0.188 -0.064 0.281 l 0 0.012 l 1.912 0 l 0 0.334 l -2.334 0 c 0 -0.008 -0.002 -0.022 -0.006 -0.041 l 0 -0.1 c 0 -0.183 0.033 -0.354 0.1 -0.51 c 0.066 -0.16 0.151 -0.309 0.252 -0.449 c 0.105 -0.14 0.221 -0.272 0.346 -0.393 c 0.129 -0.121 0.252 -0.238 0.369 -0.352 c 0.098 -0.094 0.188 -0.184 0.273 -0.27 c 0.09 -0.09 0.168 -0.18 0.234 -0.273 c 0.066 -0.094 0.119 -0.194 0.158 -0.299 c 0.039 -0.105 0.059 -0.221 0.059 -0.346 c 0 -0.273 -0.074 -0.467 -0.223 -0.584 c -0.144 -0.121 -0.327 -0.182 -0.549 -0.182 c -0.125 0 -0.236 0.016 -0.334 0.047 c -0.098 0.031 -0.184 0.068 -0.258 0.111 c -0.07 0.039 -0.131 0.08 -0.182 0.123 c -0.051 0.043 -0.088 0.076 -0.111 0.1 l -0.199 -0.264 c 0.023 -0.027 0.065 -0.066 0.123 -0.117 c 0.062 -0.055 0.139 -0.108 0.229 -0.158 c 0.094 -0.051 0.201 -0.094 0.322 -0.129 c 0.121 -0.039 0.256 -0.059 0.404 -0.059 z m -3.701 0.057 c -0.144 0 -0.295 0.011 -0.451 0.035 c -0.156 0.018 -0.3 0.063 -0.432 0.135 c -0.132 0.066 -0.24 0.159 -0.324 0.279 c -0.084 0.12 -0.125 0.279 -0.125 0.477 c 0 0.174 0.026 0.321 0.08 0.441 c 0.06 0.12 0.142 0.217 0.244 0.289 c 0.108 0.072 0.233 0.126 0.377 0.162 c 0.15 0.03 0.318 0.045 0.504 0.045 c 0.228 0 0.426 -0.008 0.594 -0.02 c 0.174 -0.018 0.321 -0.038 0.441 -0.063 l 0 -1.639 c -0.066 -0.03 -0.17 -0.06 -0.314 -0.09 c -0.144 -0.036 -0.342 -0.053 -0.594 -0.053 z" style="fill:#ececec;fill-opacity:1"/>
</svg>
